src/assets/icons/letters,simple,serif-c.svg

<svg width="48" height="48" viewBox="0 0 48 48" fill="none" xmlns="http://www.w3.org/2000/svg">
<rect opacity="0.2" x="5" y="5" width="38" height="38" rx="4" fill="black"/>
<path d="M32.8614 12.9H34.3314L33.7314 20.49H32.5314C32.1114 18.65 31.2914 17.2 30.0714 16.14C28.8714 15.08 27.4114 14.55 25.6914 14.55C24.5114 14.55 23.4614 14.79 22.5414 15.27C21.6214 15.73 20.8414 16.4 20.2014 17.28C19.5814 18.14 19.1014 19.2 18.7614 20.46C18.4414 21.7 18.2814 23.1 18.2814 24.66C18.2814 27.76 18.9114 30.15 20.1714 31.83C21.4514 33.49 23.3314 34.32 25.8114 34.32C27.8114 34.32 29.4614 33.78 30.7614 32.7C32.0814 31.62 33.0214 30.01 33.5814 27.87H34.9014V36H33.4914L33.0714 33.63C30.8714 35.41 28.2014 36.3 25.0614 36.3C23.2414 36.3 21.5914 36.03 20.1114 35.49C18.6314 34.95 17.3714 34.19 16.3314 33.21C15.2914 32.21 14.4814 31 13.9014 29.58C13.3414 28.16 13.0614 26.58 13.0614 24.84C13.0614 23.02 13.3614 21.36 13.9614 19.86C14.5614 18.36 15.4014 17.07 16.4814 15.99C17.5814 14.91 18.8814 14.08 20.3814 13.5C21.9014 12.9 23.5814 12.6 25.4214 12.6C26.6414 12.6 27.7814 12.77 28.8414 13.11C29.9014 13.45 31.0514 14 32.2914 14.76L32.8614 12.9Z" fill="black"/>
</svg>

<svg xmlns="http://www.w3.org/2000/svg" width="48" height="48" fill="none" viewBox="0 0 48 48">
  <rect width="38" height="38" x="5" y="5" fill="#000" opacity=".2" rx="4"/>
  <path fill="#000" d="M32.861 12.9h1.47l-.6 7.59h-1.2c-.42-1.84-1.24-3.29-2.46-4.35-1.2-1.06-2.66-1.59-4.38-1.59-1.18 0-2.23.24-3.15.72-.92.46-1.7 1.13-2.34 2.01-.62.86-1.1 1.92-1.44 3.18-.32 1.24-.48 2.64-.48 4.2 0 3.1.63 5.49 1.89 7.17 1.28 1.66 3.16 2.49 5.64 2.49 2 0 3.65-.54 4.95-1.62 1.32-1.08 2.26-2.69 2.82-4.83h1.32V36h-1.41l-.42-2.37c-2.2 1.78-4.87 2.67-8.01 2.67-1.82 0-3.47-.27-4.95-.81s-2.74-1.3-3.78-2.28c-1.04-1-1.85-2.21-2.43-3.63-.56-1.42-.84-3-.84-4.74 0-1.82.3-3.48.9-4.98.6-1.5 1.44-2.79 2.52-3.87 1.1-1.08 2.4-1.91 3.9-2.49 1.52-.6 3.2-.9 5.04-.9 1.22 0 2.36.17 3.42.51 1.06.34 2.21.89 3.45 1.65l.57-1.86z"/>
</svg>
